polaris-icons/icons/newicons/FolderDownMajor.svg

<svg width="20" height="20" viewBox="0 0 20 20" fill="none" xmlns="http://www.w3.org/2000/svg">
<path d="M3.5 6.75C3.5 6.05964 4.05964 5.5 4.75 5.5H6.76393C7.2374 5.5 7.67023 5.7675 7.88197 6.19098L8.05279 6.53262C8.34922 7.1255 8.95518 7.5 9.61803 7.5H15.25C15.9404 7.5 16.5 8.05964 16.5 8.75C16.5 9.16421 16.8358 9.5 17.25 9.5C17.6642 9.5 18 9.16421 18 8.75C18 7.23122 16.7688 6 15.25 6H9.61803C9.52334 6 9.43678 5.9465 9.39443 5.8618L9.22361 5.52016C8.75778 4.58851 7.80556 4 6.76393 4H4.75C3.23122 4 2 5.23122 2 6.75V13.25C2 14.7688 3.23122 16 4.75 16H10C10.4142 16 10.75 15.6642 10.75 15.25C10.75 14.8358 10.4142 14.5 10 14.5H4.75C4.05964 14.5 3.5 13.9404 3.5 13.25V6.75Z" fill="black"/>
<path d="M16.25 11C16.25 10.5858 15.9142 10.25 15.5 10.25C15.0858 10.25 14.75 10.5858 14.75 11V14.0799L13.7483 13.1894C13.4387 12.9143 12.9646 12.9421 12.6895 13.2517C12.4143 13.5613 12.4421 14.0354 12.7517 14.3106L15.0017 16.3106C15.2859 16.5631 15.7141 16.5631 15.9983 16.3106L18.2483 14.3106C18.5579 14.0354 18.5858 13.5613 18.3106 13.2517C18.0354 12.9421 17.5613 12.9143 17.2517 13.1894L16.25 14.0799V11Z" fill="black"/>
</svg>

<svg viewBox="0 0 20 20" fill="none" xmlns="http://www.w3.org/2000/svg"><path d="M3.5 6.75c0-.69.56-1.25 1.25-1.25h2.014c.473 0 .906.268 1.118.691l.17.342a1.75 1.75 0 0 0 1.566.967h5.632c.69 0 1.25.56 1.25 1.25a.75.75 0 0 0 1.5 0 2.75 2.75 0 0 0-2.75-2.75h-5.632a.25.25 0 0 1-.224-.138l-.17-.342a2.75 2.75 0 0 0-2.46-1.52h-2.014a2.75 2.75 0 0 0-2.75 2.75v6.5a2.75 2.75 0 0 0 2.75 2.75h5.25a.75.75 0 0 0 0-1.5h-5.25c-.69 0-1.25-.56-1.25-1.25v-6.5Z" fill="#000"/><path d="M16.25 11a.75.75 0 0 0-1.5 0v3.08l-1.002-.89a.75.75 0 0 0-.996 1.12l2.25 2a.75.75 0 0 0 .996 0l2.25-2a.75.75 0 0 0-.996-1.12l-1.002.89v-3.08Z" fill="#000"/></svg>
